X:333
T:Web’s Quick Step. RH.333
R:quickstep
S:Rev.R.Harrison’s MS,c1815,Cumbria
O:England
A:Temple Sowerby,Cumbria
Z:vmp.Simon Wilson. Review PJH, 2008.
P:ABACAD
K:C
P:A
M:6/8
L:1/8
Q:3/8=110
K:G
d|d2B g2d|dcB ABc|Bdg gdB|BAA A2d|\
d2B g2d|dcB ABc|Bdg eca|g2f g2:|!
P:B
|f|gfg dAd|gfg ece|gfe dcB|BAA A2z|\
G3 B3|d3 g2g|fed ed^c|d2d ” DC”d2||!
P:C
B|B6|d6|B3 d2B|AAA A2d|\
d3 c2B|B3 A2B|B3 d2B|A2A ” DC”A2||!
P:D
g|e2e Beg|e2e Beg|fef fge|e3 {df}d2B|\
cBA Bgf|e^de f2B|cBA B2^d|e3 ” DC”e2|]
W:I think we’re intended to play ABACAD. PJH.

